X: 16
M:6/8
L:1/8
K:A
uka|\
ecA BAF | AFE EFA | Bdc BAB | cBB B2ka |
ecA BAF | AFE EFA | Bdc BAB | cAA A2 :|
|:uA|\
cee dff | cee ecA | Bdc BAB | cAA A2 :|


